icons/duplicate-16.svg

<svg width="16" height="16" viewBox="0 0 16 16" fill="none" xmlns="http://www.w3.org/2000/svg">
<path fill-rule="evenodd" clip-rule="evenodd" d="M0 6.75C0 5.7835 0.783502 5 1.75 5H3.25C3.66421 5 4 5.33579 4 5.75C4 6.16421 3.66421 6.5 3.25 6.5H1.75C1.61193 6.5 1.5 6.61193 1.5 6.75V14.25C1.5 14.3881 1.61193 14.5 1.75 14.5H9.25C9.38807 14.5 9.5 14.3881 9.5 14.25V12.75C9.5 12.3358 9.83579 12 10.25 12C10.6642 12 11 12.3358 11 12.75V14.25C11 15.2165 10.2165 16 9.25 16H1.75C0.783502 16 0 15.2165 0 14.25V6.75Z" fill="black"/>
<path fill-rule="evenodd" clip-rule="evenodd" d="M5 1.75C5 0.783502 5.7835 0 6.75 0H14.25C15.2165 0 16 0.783502 16 1.75V9.25C16 10.2165 15.2165 11 14.25 11H6.75C5.7835 11 5 10.2165 5 9.25V1.75ZM6.75 1.5C6.61193 1.5 6.5 1.61193 6.5 1.75V9.25C6.5 9.38807 6.61193 9.5 6.75 9.5H14.25C14.3881 9.5 14.5 9.38807 14.5 9.25V1.75C14.5 1.61193 14.3881 1.5 14.25 1.5H6.75Z" fill="black"/>
</svg>

<svg xmlns="http://www.w3.org/2000/svg" width="16" height="16" viewBox="0 0 16 16"><path fill-rule="evenodd" d="M0 6.75C0 5.784.784 5 1.75 5h1.5a.75.75 0 010 1.5h-1.5a.25.25 0 00-.25.25v7.5c0 .138.112.25.25.25h7.5a.25.25 0 00.25-.25v-1.5a.75.75 0 011.5 0v1.5A1.75 1.75 0 019.25 16h-7.5A1.75 1.75 0 010 14.25v-7.5z"/><path fill-rule="evenodd" d="M5 1.75C5 .784 5.784 0 6.75 0h7.5C15.216 0 16 .784 16 1.75v7.5A1.75 1.75 0 0114.25 11h-7.5A1.75 1.75 0 015 9.25v-7.5zm1.75-.25a.25.25 0 00-.25.25v7.5c0 .138.112.25.25.25h7.5a.25.25 0 00.25-.25v-7.5a.25.25 0 00-.25-.25h-7.5z"/></svg>
